icons/linear-ele-add-location.svg

<svg xmlns="http://www.w3.org/2000/svg" width="32px" height="32px" viewBox="0 0 32 32" version="1.1">
    <title>linear-ele-add-location</title>
    <g id="linear-ele-add-location" stroke-width="1" fill-rule="evenodd">
        <path d="M16,2 C22.0751322,2 27,6.92486775 27,13 C27,17.7391901 23.5622165,23.4573305 18.6860892,28.0002599 L23,28 C23.5522847,28 24,28.4477153 24,29 C24,29.5522847 23.5522847,30 23,30 L9,30 C8.44771525,30 8,29.5522847 8,29 C8,28.4477153 8.44771525,28 9,28 L13.3139108,28.0002599 C8.43778354,23.4573305 5,17.7391901 5,13 C5,6.92486775 9.92486775,2 16,2 Z M16,4 C11.0294373,4 7,8.02943725 7,13 C7,17.3571281 10.6136034,23.0443495 15.608055,27.3724331 L16,27.705 L16.0569604,27.658929 C21.1116804,23.3925795 24.835169,17.7073315 24.994671,13.2924162 L25,13 C25,8.02943725 20.9705627,4 16,4 Z M16,8 C16.5522847,8 17,8.44771525 17,9 L17,12 L20,12 C20.5522847,12 21,12.4477153 21,13 C21,13.5522847 20.5522847,14 20,14 L17,14 L17,17 C17,17.5522847 16.5522847,18 16,18 C15.4477153,18 15,17.5522847 15,17 L15,14 L12,14 C11.4477153,14 11,13.5522847 11,13 C11,12.4477153 11.4477153,12 12,12 L15,12 L15,9 C15,8.44771525 15.4477153,8 16,8 Z" id="&#24418;&#29366;" fill-rule="nonzero" />
    </g>
</svg>

<svg xmlns="http://www.w3.org/2000/svg" viewBox="0 0 32 32"><path fill="currentColor" d="M16 2c6.075 0 11 4.925 11 11 0 4.74-3.438 10.457-8.314 15H23a1 1 0 0 1 0 2H9a1 1 0 0 1 0-2h4.314C8.438 23.457 5 17.74 5 13 5 6.925 9.925 2 16 2m0 2a9 9 0 0 0-9 9c0 4.357 3.614 10.044 8.608 14.372l.392.333.057-.046c5.055-4.266 8.778-9.952 8.938-14.367L25 13a9 9 0 0 0-9-9m0 4a1 1 0 0 1 1 1v3h3a1 1 0 0 1 0 2h-3v3a1 1 0 0 1-2 0v-3h-3a1 1 0 0 1 0-2h3V9a1 1 0 0 1 1-1"/></svg>
